X: 9705
T: Deck The Halls
R: hornpipe
M: 4/4
K: Gmajor
|:c3 B A2 G2|F2 FG A2 F2|GABG A3 G|F2 E2 F4:|
G2 GA B2 G2|A2 AB c2 G2|AGAB c2 f2|e2 d2 cGAB|
c2 cB A2 AG|FEFG A2 F2|GdBG c3 G|F2 E2 F4||
d>c BA|GG/A/ BG|A/B/c/A/ B>A|GF G/D/G/B/|
dd/c/ B/c/B/A/|G/F/G/A/ BG|A/B/c/A/ B>A|GF G2||
A>B cA|B>c dA|B/^A/B/c/ dg|f>e d2|
d>c BA|G>A BG|A/e/c/A/ d>c|BA G2||
|:d>c BA|GG/A/ BG|A/B/c/A/ B>A|GF G2:|
AA/B/ cA|B/A/B/c/ dA|B/A/B/c/ dg|fe d2|
d>c BA|GG/A/ BG|A/e/c/A/ d>c|BA G2||

